Otagle3/Assets/ikonySvG/UtylizacjaOpakowania.svg

<svg id="SVGRoot" width="206px" height="206px" version="1.1" viewBox="0 0 206 206" xmlns="http://www.w3.org/2000/svg">
 <g transform="matrix(3.7795 0 0 3.7795 -1795.2 2502.6)">
  <flowRoot fill="black" font-family="sans-serif" font-size="40px" letter-spacing="0px" word-spacing="0px" style="line-height:1.25" xml:space="preserve"><flowRegion><rect x="-392.69" y="-63.57" width="758.02" height="397.52"/></flowRegion><flowPara/></flowRoot>
  <flowRoot fill="black" font-family="sans-serif" font-size="40px" letter-spacing="0px" word-spacing="0px" style="line-height:1.25" xml:space="preserve"><flowRegion><rect x="-251.87" y="-84.492" width="624.44" height="455.45"/></flowRegion><flowPara/></flowRoot>
  <flowRoot fill="black" font-family="sans-serif" font-size="40px" letter-spacing="0px" word-spacing="0px" style="line-height:1.25" xml:space="preserve"><flowRegion><rect x="-202.78" y="-50.695" width="473.96" height="281.64"/></flowRegion><flowPara/></flowRoot>
  <flowRoot fill="black" font-family="sans-serif" font-size="40px" letter-spacing="0px" word-spacing="0px" style="line-height:1.25" xml:space="preserve"><flowRegion><rect x="-86.906" y="-78.859" width="516.61" height="410.39"/></flowRegion><flowPara/></flowRoot>
  <flowRoot fill="black" font-family="sans-serif" font-size="40px" letter-spacing="0px" word-spacing="0px" style="line-height:1.25" xml:space="preserve"><flowRegion><rect x="-81.273" y="-32.188" width="309" height="322.68"/></flowRegion><flowPara/></flowRoot>
  <flowRoot fill="black" font-family="sans-serif" font-size="40px" letter-spacing="0px" word-spacing="0px" style="line-height:1.25" xml:space="preserve"><flowRegion><rect x="-90.93" y="-68.398" width="392.69" height="252.67"/></flowRegion><flowPara/></flowRoot>
  <g transform="translate(675.17 -.21291)">
   <flowRoot fill="black" font-family="sans-serif" font-size="40px" letter-spacing="0px" word-spacing="0px" style="line-height:1.25" xml:space="preserve"><flowRegion><rect x="-100.59" y="-53.109" width="462.7" height="369.35"/></flowRegion><flowPara/></flowRoot>
   <g transform="translate(57.194 .21291)">
    <flowRoot fill="black" font-family="sans-serif" font-size="40px" letter-spacing="0px" word-spacing="0px" style="line-height:1.25" xml:space="preserve"><flowRegion><rect x="-329.12" y="-12.07" width="696.05" height="259.91"/></flowRegion><flowPara/></flowRoot>
    <g transform="translate(-1495.1 -629.38)">
     <flowRoot fill="black" font-family="sans-serif" font-size="40px" letter-spacing="0px" word-spacing="0px" style="line-height:1.25" xml:space="preserve"><flowRegion><rect x="-306.59" y="-111.05" width="206" height="51.5"/></flowRegion><flowPara/></flowRoot>
     <g transform="translate(346.92 4.8455e-6)">
      <rect x="891.77" y="-31.75" width="52.917" height="52.917" fill="#db3b3b" stroke="#000" stroke-linecap="round" stroke-width=".5" style="paint-order:fill markers stroke"/>
      <text x="918.3335" y="8.5831251" fill="#ffffff" font-family="sans-serif" font-size="4.9389px" letter-spacing="0px" stroke-width=".26458" text-anchor="middle" word-spacing="0px" style="line-height:1.25" xml:space="preserve"><tspan x="918.3335" y="8.5831251" text-align="center">Utylizacja</tspan><tspan x="918.3335" y="16.520624" text-align="center">opakowania</tspan></text>
      <g transform="matrix(.31843 0 0 .31843 902.34 -28.69)" fill="#fff">
       <path d="m25.67 82-6.86-12h28.12v-6h-19.75l3.22-5.59 6.08 3.59-6.48-24.89-24.92 6.71 6.33 3.66-6 11.13 16.78 29.39h24.74v-6zm-6.81-35.67 6.88-1.85 1.8 6.91-7.29 12.61h-4.87l-3.15-5.5z"/>
       <path d="m24.19 34.47 10.6-18.47h13.91l-14.12 24.48 5.19 3 9.67-16.75 3.34 5.27-6 3.45 24.76 6.85 6.65-25.07-6.32 3.67-6.62-10.9h-34l-12.25 21.49zm45-6.52-1.84 7-6.82-1.95-7.7-12.16 2.8-4.84h6.25z"/>
       <path d="m82.31 35.88-5.19 3 10.62 18.28-6.91 12.16-14.11-24.44-5.19 3 9.88 17.12h-6.41v-7l-18.33 18 18.33 18.23v-7.23h12.68l17-29.86zm-22.12 45.12-5-5 5.09-5h14.6l2.51 4.36-3.2 5.64z"/>
      </g>
     </g>
    </g>
   </g>
  </g>
 </g>
</svg>

<?xml version="1.0" encoding="UTF-8" standalone="no"?>
<svg
   xmlns:osb="http://www.openswatchbook.org/uri/2009/osb"
   xmlns:dc="http://purl.org/dc/elements/1.1/"
   xmlns:cc="http://creativecommons.org/ns#"
   xmlns:rdf="http://www.w3.org/1999/02/22-rdf-syntax-ns#"
   xmlns:svg="http://www.w3.org/2000/svg"
   xmlns="http://www.w3.org/2000/svg"
   id="svg47"
   version="1.1"
   viewBox="0 0 52.758294 52.758296"
   height="199.40143"
   width="199.40143">
  <defs
     id="defs42">
    <pattern
       id="EMFhbasepattern"
       patternUnits="userSpaceOnUse"
       width="6"
       height="6"
       x="0"
       y="0" />
    <marker
       style="overflow:visible"
       id="Arrow1Mend-5-0"
       refX="0"
       refY="0"
       orient="auto">
      <path
         transform="matrix(-0.4,0,0,-0.4,-4,0)"
         style="fill:#000000;fill-opacity:1;fill-rule:evenodd;stroke:#000000;stroke-width:1.00000003pt;stroke-opacity:1"
         d="M 0,0 5,-5 -12.5,0 5,5 Z"
         id="path1146-3-3" />
    </marker>
    <marker
       style="overflow:visible"
       id="Arrow1Mend-5-3"
       refX="0"
       refY="0"
       orient="auto">
      <path
         transform="matrix(-0.4,0,0,-0.4,-4,0)"
         style="fill:#000000;fill-opacity:1;fill-rule:evenodd;stroke:#000000;stroke-width:1.00000003pt;stroke-opacity:1"
         d="M 0,0 5,-5 -12.5,0 5,5 Z"
         id="path1146-3-9" />
    </marker>
    <marker
       orient="auto"
       refY="0"
       refX="0"
       id="Arrow1Mend-5-0-4"
       style="overflow:visible">
      <path
         id="path1146-3-3-8"
         d="M 0,0 5,-5 -12.5,0 5,5 Z"
         style="fill:#ffffff;fill-opacity:1;fill-rule:evenodd;stroke:#ffffff;stroke-width:1.00000003pt;stroke-opacity:1"
         transform="matrix(-0.4,0,0,-0.4,-4,0)" />
    </marker>
    <marker
       orient="auto"
       refY="0"
       refX="0"
       id="Arrow1Mend-5-3-8"
       style="overflow:visible">
      <path
         id="path1146-3-9-5"
         d="M 0,0 5,-5 -12.5,0 5,5 Z"
         style="fill:#ffffff;fill-opacity:1;fill-rule:evenodd;stroke:#ffffff;stroke-width:1.00000003pt;stroke-opacity:1"
         transform="matrix(-0.4,0,0,-0.4,-4,0)" />
    </marker>
    <marker
       style="overflow:visible"
       id="Arrow1Mend"
       refX="0"
       refY="0"
       orient="auto">
      <path
         transform="matrix(-0.4,0,0,-0.4,-4,0)"
         style="fill:#000000;fill-opacity:1;fill-rule:evenodd;stroke:#000000;stroke-width:1.00000003pt;stroke-opacity:1"
         d="M 0,0 5,-5 -12.5,0 5,5 Z"
         id="path1146" />
    </marker>
    <marker
       orient="auto"
       refY="0"
       refX="0"
       id="Arrow1Mend-5"
       style="overflow:visible">
      <path
         id="path1146-3"
         d="M 0,0 5,-5 -12.5,0 5,5 Z"
         style="fill:#ffffff;fill-opacity:1;fill-rule:evenodd;stroke:#ffffff;stroke-width:1.00000003pt;stroke-opacity:1"
         transform="matrix(-0.4,0,0,-0.4,-4,0)" />
    </marker>
    <marker
       style="overflow:visible"
       id="Arrow1Mstart"
       refX="0"
       refY="0"
       orient="auto">
      <path
         transform="matrix(0.4,0,0,0.4,4,0)"
         style="fill:#000000;fill-opacity:1;fill-rule:evenodd;stroke:#000000;stroke-width:1.00000003pt;stroke-opacity:1"
         d="M 0,0 5,-5 -12.5,0 5,5 Z"
         id="path1143" />
    </marker>
    <marker
       orient="auto"
       refY="0"
       refX="0"
       id="Arrow1Mstart-1"
       style="overflow:visible">
      <path
         id="path1143-7"
         d="M 0,0 5,-5 -12.5,0 5,5 Z"
         style="fill:#ffffff;fill-opacity:1;fill-rule:evenodd;stroke:#ffffff;stroke-width:1.00000003pt;stroke-opacity:1"
         transform="matrix(0.4,0,0,0.4,4,0)" />
    </marker>
    <marker
       style="overflow:visible"
       id="Arrow1Lend"
       refX="0"
       refY="0"
       orient="auto">
      <path
         transform="matrix(-0.8,0,0,-0.8,-10,0)"
         style="fill:#000000;fill-opacity:1;fill-rule:evenodd;stroke:#000000;stroke-width:1.00000003pt;stroke-opacity:1"
         d="M 0,0 5,-5 -12.5,0 5,5 Z"
         id="path1140" />
    </marker>
    <marker
       style="overflow:visible"
       id="Arrow1Lstart"
       refX="0"
       refY="0"
       orient="auto">
      <path
         transform="matrix(0.8,0,0,0.8,10,0)"
         style="fill:#000000;fill-opacity:1;fill-rule:evenodd;stroke:#000000;stroke-width:1.00000003pt;stroke-opacity:1"
         d="M 0,0 5,-5 -12.5,0 5,5 Z"
         id="path1137" />
    </marker>
    <marker
       orient="auto"
       refY="0"
       refX="0"
       id="Arrow1Lend-5"
       style="overflow:visible">
      <path
         id="path1140-4"
         d="M 0,0 5,-5 -12.5,0 5,5 Z"
         style="fill:#ffffff;fill-opacity:1;fill-rule:evenodd;stroke:#ffffff;stroke-width:1.00000003pt;stroke-opacity:1"
         transform="matrix(-0.8,0,0,-0.8,-10,0)" />
    </marker>
    <marker
       orient="auto"
       refY="0"
       refX="0"
       id="Arrow1Lstart-93"
       style="overflow:visible">
      <path
         id="path1137-7"
         d="M 0,0 5,-5 -12.5,0 5,5 Z"
         style="fill:#ffffff;fill-opacity:1;fill-rule:evenodd;stroke:#ffffff;stroke-width:1.00000003pt;stroke-opacity:1"
         transform="matrix(0.8,0,0,0.8,10,0)" />
    </marker>
    <linearGradient
       id="linearGradient4460"
       osb:paint="solid">
      <stop
         style="stop-color:#db3b3b;stop-opacity:1;"
         offset="0"
         id="stop4458" />
    </linearGradient>
  </defs>
  <metadata
     id="metadata45">
    <rdf:RDF>
      <cc:Work
         rdf:about="">
        <dc:format>image/svg+xml</dc:format>
        <dc:type
           rdf:resource="http://purl.org/dc/dcmitype/StillImage" />
        <dc:title></dc:title>
      </cc:Work>
    </rdf:RDF>
  </metadata>
  <g
     id="g8556"
     transform="translate(49.836509,-375.23204)">
    <g
       id="g5305">
      <g
         id="g4656"
         transform="translate(-941.73856,407.08814)">
        <rect
           y="-31.749987"
           x="891.76978"
           height="52.916668"
           width="52.916668"
           id="rect833-4-4-4-3-1-1-30"
           style="fill:#db3b3b;fill-opacity:1;stroke:#000000;stroke-width:0.49999899;stroke-linecap:round;stroke-miterlimit:4;stroke-dasharray:none;stroke-opacity:1;paint-order:fill markers stroke" />
        <text
           id="text983-1-5-6-98-51-0-04"
           y="11.144867"
           x="918.3335"
           style="font-size:6.3499999px;line-height:1.25;font-family:voestalpine;-inkscape-font-specification:voestalpine;letter-spacing:0px;word-spacing:0px;fill:#ffffff;fill-opacity:1;stroke-width:0.26458299"
           xml:space="preserve"><tspan
             style="font-size:6.3499999px;text-align:center;text-anchor:middle;fill:#ffffff;fill-opacity:1;stroke-width:0.26458299"
             y="11.144867"
             x="918.3335"
             id="tspan1598-7-05">Utylizacja</tspan><tspan
             style="font-size:6.3499999px;text-align:center;text-anchor:middle;fill:#ffffff;fill-opacity:1;stroke-width:0.26458299"
             y="19.082367"
             x="918.3335"
             id="tspan2028">opakowania</tspan></text>
        <g
           style="fill:#ffffff;fill-opacity:1"
           id="g2024"
           transform="matrix(0.31843248,0,0,0.31843248,902.34471,-28.690347)">
          <path
             id="path2007"
             d="M 25.67,82 18.81,70 H 46.93 V 64 H 27.18 L 30.4,58.41 36.48,62 30,37.11 5.08,43.82 11.41,47.48 5.41,58.61 22.19,88 h 24.74 v -6 z m -6.81,-35.67 6.88,-1.85 1.8,6.91 L 20.25,64 h -4.87 l -3.15,-5.5 z"
             style="fill:#ffffff;fill-opacity:1" />
          <path
             id="path2009"
             d="M 24.19,34.47 34.79,16 H 48.7 l -14.12,24.48 5.19,3 9.67,-16.75 3.34,5.27 -6,3.45 L 71.54,42.3 78.19,17.23 71.87,20.9 65.25,10 h -34 L 19,31.49 Z m 45,-6.52 -1.84,7 L 60.53,33 52.83,20.84 55.63,16 h 6.25 z"
             style="fill:#ffffff;fill-opacity:1" />
          <path
             id="path2011"
             d="m 82.31,35.88 -5.19,3 10.62,18.28 -6.91,12.16 -14.11,-24.44 -5.19,3 L 71.41,65 H 65 V 58 L 46.67,76 65,94.23 V 87 h 12.68 l 17,-29.86 z M 60.19,81 l -5,-5 5.09,-5 h 14.6 l 2.51,4.36 -3.2,5.64 z"
             style="fill:#ffffff;fill-opacity:1" />
        </g>
        <rect
           style="fill:#db3b3b;fill-opacity:1;stroke:#000000;stroke-width:0.49999899;stroke-linecap:round;stroke-miterlimit:4;stroke-dasharray:none;stroke-opacity:1;paint-order:fill markers stroke"
           id="rect4579"
           width="52.916668"
           height="52.916668"
           x="891.76978"
           y="-31.749987" />
        <text
           xml:space="preserve"
           style="font-size:6.3499999px;line-height:1.25;font-family:voestalpine;-inkscape-font-specification:voestalpine;letter-spacing:0px;word-spacing:0px;fill:#ffffff;fill-opacity:1;stroke-width:0.26458299"
           x="918.3335"
           y="11.144867"
           id="text4585"><tspan
             id="tspan4581"
             x="918.3335"
             y="11.144867"
             style="font-size:6.3499999px;text-align:center;text-anchor:middle;fill:#ffffff;fill-opacity:1;stroke-width:0.26458299">Utylizacja</tspan><tspan
             id="tspan4583"
             x="918.3335"
             y="19.082367"
             style="font-size:6.3499999px;text-align:center;text-anchor:middle;fill:#ffffff;fill-opacity:1;stroke-width:0.26458299">opakowania</tspan></text>
        <g
           transform="matrix(0.31843248,0,0,0.31843248,902.34471,-28.690347)"
           id="g4593"
           style="fill:#ffffff;fill-opacity:1">
          <path
             style="fill:#ffffff;fill-opacity:1"
             d="M 25.67,82 18.81,70 H 46.93 V 64 H 27.18 L 30.4,58.41 36.48,62 30,37.11 5.08,43.82 11.41,47.48 5.41,58.61 22.19,88 h 24.74 v -6 z m -6.81,-35.67 6.88,-1.85 1.8,6.91 L 20.25,64 h -4.87 l -3.15,-5.5 z"
             id="path4587" />
          <path
             style="fill:#ffffff;fill-opacity:1"
             d="M 24.19,34.47 34.79,16 H 48.7 l -14.12,24.48 5.19,3 9.67,-16.75 3.34,5.27 -6,3.45 L 71.54,42.3 78.19,17.23 71.87,20.9 65.25,10 h -34 L 19,31.49 Z m 45,-6.52 -1.84,7 L 60.53,33 52.83,20.84 55.63,16 h 6.25 z"
             id="path4589" />
          <path
             style="fill:#ffffff;fill-opacity:1"
             d="m 82.31,35.88 -5.19,3 10.62,18.28 -6.91,12.16 -14.11,-24.44 -5.19,3 L 71.41,65 H 65 V 58 L 46.67,76 65,94.23 V 87 h 12.68 l 17,-29.86 z M 60.19,81 l -5,-5 5.09,-5 h 14.6 l 2.51,4.36 -3.2,5.64 z"
             id="path4591" />
        </g>
      </g>
    </g>
  </g>
</svg>
